dist/icons/svgs/arrow-up-long-outline.svg

<svg xmlns="http://www.w3.org/2000/svg" width="24" height="24" fill="currentcolor" class="icon-arrow-up-long-outline" viewBox="0 0 24 24">
  <path d="M13.1641 2.27344L18.4375 7.58594C18.8281 7.97656 18.8281 8.5625 18.4375 8.91406C18.0859 9.30469 17.5 9.30469 17.1094 8.91406L13.3984 5.20312V21.0625C13.3984 21.6094 13.0078 22 12.4609 22C11.9531 22 11.5234 21.6094 11.5234 21.0625V5.20312L7.8125 8.91406C7.46094 9.30469 6.875 9.30469 6.52344 8.91406C6.13281 8.5625 6.13281 7.97656 6.52344 7.58594L11.8359 2.27344C12.1875 1.92188 12.7734 1.92188 13.1641 2.27344Z"/>
</svg>

<svg xmlns="http://www.w3.org/2000/svg" width="24" height="24" fill="currentColor" class="icon-arrow-up-long-outline" viewBox="0 0 24 24">
  <path d="m13.164 2.273 5.274 5.313c.39.39.39.976 0 1.328-.352.39-.938.39-1.329 0l-3.71-3.71v15.859c0 .546-.391.937-.938.937a.925.925 0 0 1-.938-.937V5.203l-3.71 3.711a.855.855 0 0 1-1.29 0c-.39-.351-.39-.937 0-1.328l5.313-5.313c.351-.351.937-.351 1.328 0"/>
</svg>
